src/assets/images/header_logo.svg

<svg width="320" height="64" viewBox="0 0 320 64" fill="none" xmlns="http://www.w3.org/2000/svg">
<g clip-path="url(#clip0_56_7)">
<path d="M320 64H0V0H320V64ZM172.492 20V30.5742C172.492 40.5218 178.125 44 190.555 44H191.718C204.147 44 209.78 40.5218 209.78 30.5742V20H198.877V30.3301C198.877 34.9909 196.66 37.0439 191.572 37.0439H190.7C185.612 37.0439 183.395 34.9909 183.395 30.3301V20H172.492ZM230.25 24.7441C226.107 17.6873 211.608 18.4391 211.608 27.459C211.608 36.4548 230.15 43.9556 230.25 43.9961C230.25 43.9961 248.893 36.4792 248.893 27.459C248.893 18.4389 234.393 17.6869 230.25 24.7441ZM24 20V43.6523H34.9033V37.2178H44.3887C46.9327 37.2178 47.6962 38.1217 47.8779 39.8955L48.2773 43.6523H59.7988L59.1807 38.4697C58.8899 35.9654 58.0536 34.3653 55.0371 33.7393C58.1989 32.8697 59.7616 30.7828 59.7617 27.7568V27.3389C59.7616 22.5738 56.7089 20 47.2598 20H24ZM61.7988 20V43.6523H93.7812V36.6953H72.7021V34.4346H90.6553V29.2178H72.7021V26.9561H93.7812V20H61.7988ZM95.7998 20V43.6523H116.407C127.092 43.6523 132.979 40.5912 132.979 32.1045V31.5479C132.979 23.061 127.092 20.0001 116.407 20H95.7998ZM134.947 20V43.6523H145.851V37.2178H155.336C157.88 37.2178 158.643 38.1217 158.825 39.8955L159.225 43.6523H170.746L170.128 38.4697C169.837 35.9655 169.002 34.3654 165.985 33.7393C169.147 32.8697 170.71 30.7826 170.71 27.7568V27.3389C170.71 22.5738 167.656 20 158.207 20H134.947ZM250.971 20V43.6523H261.51V29.7041L268.67 43.6523H278.119L285.278 29.7041V43.6523H296V20H280.627L273.54 34.1562L266.344 20H250.971ZM114.953 26.9561C119.278 26.9561 121.713 28.1043 121.713 31.6865V31.9648C121.713 35.5474 119.278 36.6953 114.953 36.6953H106.703V26.9561H114.953ZM44.8975 26.9561C47.6232 26.9561 48.6777 27.4435 48.6777 28.7305V28.835C48.6776 30.1218 47.6231 30.6084 44.8975 30.6084H34.9033V26.9561H44.8975ZM155.845 26.9561C158.57 26.9561 159.625 27.4435 159.625 28.7305V28.835C159.625 30.1218 158.57 30.6084 155.845 30.6084H145.851V26.9561H155.845Z" fill="#EAE5DF"/>
</g>
<defs>
<clipPath id="clip0_56_7">
<rect width="320" height="64" fill="white"/>
</clipPath>
</defs>
</svg>

<svg xmlns="http://www.w3.org/2000/svg" width="320" height="64" fill="none"><g clip-path="url(#a)"><path fill="#eae5df" d="M320 64H0V0h320zM172.492 20v10.574c0 9.948 5.633 13.426 18.063 13.426h1.163c12.429 0 18.062-3.478 18.062-13.426V20h-10.903v10.33c0 4.66-2.217 6.714-7.305 6.714h-.872c-5.088 0-7.305-2.053-7.305-6.714V20zm57.758 4.744c-4.143-7.057-18.642-6.305-18.642 2.715 0 8.996 18.542 16.497 18.642 16.537 0 0 18.643-7.517 18.643-16.537s-14.5-9.772-18.643-2.715M24 20v23.652h10.903v-6.434h9.486c2.544 0 3.307.904 3.489 2.677l.4 3.757h11.52l-.617-5.182c-.291-2.505-1.127-4.105-4.144-4.73 3.162-.87 4.725-2.957 4.725-5.983v-.418c0-4.765-3.053-7.339-12.502-7.339zm37.799 0v23.652H93.78v-6.957H72.702v-2.26h17.953v-5.217H72.702v-2.262h21.08V20zm34 0v23.652h20.608c10.685 0 16.572-3.06 16.572-11.547v-.557c0-8.487-5.887-11.548-16.572-11.548zm39.148 0v23.652h10.904v-6.434h9.485c2.544 0 3.307.904 3.489 2.677l.4 3.757h11.521l-.618-5.182c-.291-2.504-1.126-4.105-4.143-4.73 3.162-.87 4.725-2.957 4.725-5.983v-.418c0-4.765-3.054-7.339-12.503-7.339zm116.024 0v23.652h10.539V29.704l7.16 13.948h9.449l7.159-13.948v13.948H296V20h-15.373l-7.087 14.156L266.344 20zm-136.018 6.956c4.325 0 6.76 1.148 6.76 4.73v.279c0 3.582-2.435 4.73-6.76 4.73h-8.25v-9.739zm-70.055 0c2.725 0 3.78.488 3.78 1.774v.105c0 1.287-1.055 1.773-3.78 1.773h-9.995v-3.652zm110.947 0c2.725 0 3.78.488 3.78 1.774v.105c0 1.287-1.055 1.773-3.78 1.773h-9.994v-3.652z"/></g><defs><clipPath id="a"><path fill="#fff" d="M0 0h320v64H0z"/></clipPath></defs></svg>
